X:1
T:Czar of Russia's Favorite -- Hornpipe
R:hornpipe
B:Cole's 1000 Fiddle Tunes
M:C|
L:1/8
K:F
vk[f2A2]AB cAcA|uk[f2A2]AB cAcA|dcBA G2(ga)|bgaf fedc|
vk[f2A2]AB cAcA|uk[f2A2]AB cAcA|dcBA G2(ga)|bgfe f2z2:|
vka2fa fafa|ukg2eg egeg|ka2fa fafa|gfed {d}c2de|
vfefe "0"ec"0"ec|fdfd "0"ec"0"ec|fagf edc=B\
|1 cGEG C"0"efg:|2 cGEG Cgfe|]
